public/img/pin_location_dark.svg

<?xml version="1.0" encoding="UTF-8"?>
<!DOCTYPE svg PUBLIC "-//W3C//DTD SVG 1.1//EN" "http://www.w3.org/Graphics/SVG/1.1/DTD/svg11.dtd">
<!-- Creator: CorelDRAW X8 -->
<svg xmlns="http://www.w3.org/2000/svg" xml:space="preserve" width="0.259957in" height="0.358898in" version="1.1" style="shape-rendering:geometricPrecision; text-rendering:geometricPrecision; image-rendering:optimizeQuality; fill-rule:evenodd; clip-rule:evenodd"
viewBox="0 0 8 12"
 xmlns:xlink="http://www.w3.org/1999/xlink">
 <defs>
  <style type="text/css">
   <![CDATA[
    .fil0 {fill:#1B2460}
    .fil1 {fill:white}
   ]]>
  </style>
 </defs>
 <g id="Layer_x0020_1">
  <metadata id="CorelCorpID_0Corel-Layer"/>
  <g id="_120445766400">
   <path class="fil0" d="M4 0c-2,0 -4,2 -4,4 0,3 4,7 4,7 0,1 0,1 0,0 1,0 4,-4 4,-7 0,-2 -1,-4 -4,-4zm0 6c-1,0 -2,-1 -2,-2 0,-1 1,-2 2,-2 1,0 2,1 2,2 0,1 -1,2 -2,2z"/>
   <circle class="fil1" cx="4" cy="4" r="2"/>
  </g>
 </g>
</svg>

<?xml version="1.0" encoding="UTF-8" standalone="no"?>
<svg
   xmlns:dc="http://purl.org/dc/elements/1.1/"
   xmlns:cc="http://creativecommons.org/ns#"
   xmlns:rdf="http://www.w3.org/1999/02/22-rdf-syntax-ns#"
   xmlns:svg="http://www.w3.org/2000/svg"
   xmlns="http://www.w3.org/2000/svg"
   xmlns:sodipodi="http://sodipodi.sourceforge.net/DTD/sodipodi-0.dtd"
   xmlns:inkscape="http://www.inkscape.org/namespaces/inkscape"
   xml:space="preserve"
   width="0.259957in"
   height="0.358894in"
   version="1.1"
   style="shape-rendering:geometricPrecision; text-rendering:geometricPrecision; image-rendering:optimizeQuality; fill-rule:evenodd; clip-rule:evenodd"
   viewBox="0 0 8 11"
   id="svg13"
   sodipodi:docname="pin_location_dark.svg"
   inkscape:version="1.0.2 (e86c870879, 2021-01-15)"><metadata
   id="metadata17"><rdf:RDF><cc:Work
       rdf:about=""><dc:format>image/svg+xml</dc:format><dc:type
         rdf:resource="http://purl.org/dc/dcmitype/StillImage" /><dc:title></dc:title></cc:Work></rdf:RDF></metadata><sodipodi:namedview
   pagecolor="#ffffff"
   bordercolor="#666666"
   borderopacity="1"
   objecttolerance="10"
   gridtolerance="10"
   guidetolerance="10"
   inkscape:pageopacity="0"
   inkscape:pageshadow="2"
   inkscape:window-width="1366"
   inkscape:window-height="713"
   id="namedview15"
   showgrid="false"
   inkscape:zoom="15.934371"
   inkscape:cx="11.540083"
   inkscape:cy="19.558567"
   inkscape:window-x="0"
   inkscape:window-y="27"
   inkscape:window-maximized="1"
   inkscape:current-layer="svg13" />
 <defs
   id="defs4">
  <style
   type="text/css"
   id="style2">
   <![CDATA[
    .fil0 {fill:#207AC9}
    .fil1 {fill:white}
   ]]>
  </style>
 
  
  
 
   
   
  </defs>
 <path
   class="fil0"
   d="M 4,0 C 2,0 0,2 0,4 c 0,2 3,6 4,7 0,0 0,0 0,0 C 4,10 8,6 8,4 8,2 6,0 4,0 Z M 4,6 C 3,6 2,5 2,4 2,3 3,2 4,2 5,2 6,3 6,4 6,5 5,6 4,6 Z"
   id="path7"
   style="fill:#707c86;fill-opacity:1" /><circle
   class="fil1"
   cx="4"
   cy="4"
   r="2"
   id="circle9" />
</svg>
